assets/images/ico_faq_plus.svg

<svg width="32" height="33" viewBox="0 0 32 33" fill="none" xmlns="http://www.w3.org/2000/svg">
<path d="M31.3985 31.9953C31.5892 31.8056 31.7405 31.5804 31.8437 31.3325C31.9469 31.0846 32 30.8189 32 30.5506C32 30.2822 31.9469 30.0165 31.8437 29.7686C31.7405 29.5208 31.5892 29.2956 31.3985 29.1059L17.4687 15.2258C17.2782 15.036 17.052 14.8854 16.8031 14.7826C16.5541 14.6798 16.2872 14.627 16.0177 14.627C15.7482 14.627 15.4814 14.6798 15.2324 14.7826C14.9834 14.8854 14.7573 15.036 14.5668 15.2258L0.636921 29.1059C0.438644 29.2938 0.280157 29.5193 0.170794 29.7692C0.0614301 30.019 0.00340858 30.2882 0.000148955 30.5607C-0.00311067 30.8332 0.0484526 31.1036 0.151808 31.356C0.255164 31.6084 0.408217 31.8376 0.601942 32.0302C0.795668 32.2227 1.02615 32.3747 1.27979 32.4772C1.53344 32.5796 1.80512 32.6305 2.07883 32.6268C2.35253 32.623 2.62271 32.5648 2.87345 32.4555C3.12419 32.3461 3.35041 32.1879 3.53877 31.9902L16.0177 19.5547L28.4967 31.9902C28.6868 32.1803 28.9127 32.3314 29.1615 32.4346C29.4103 32.5377 29.677 32.5911 29.9466 32.5916C30.2161 32.5921 30.483 32.5396 30.7322 32.4373C30.9813 32.335 31.2077 32.1848 31.3985 31.9953Z" fill="black"/>
<path d="M0.601467 1.25865C0.410794 1.44829 0.259531 1.67349 0.156327 1.92138C0.0531231 2.16927 2.12332e-06 2.43498 2.08813e-06 2.70332C2.05294e-06 2.97166 0.053123 3.23737 0.156327 3.48526C0.25953 3.73315 0.410793 3.95835 0.601467 4.14799L14.5313 18.0281C14.7218 18.2179 14.948 18.3685 15.1969 18.4713C15.4459 18.5741 15.7128 18.627 15.9823 18.627C16.2518 18.627 16.5186 18.5741 16.7676 18.4713C17.0166 18.3685 17.2427 18.2179 17.4332 18.0281L31.3631 4.14799C31.5614 3.96009 31.7198 3.73457 31.8292 3.48472C31.9386 3.23487 31.9966 2.96575 31.9999 2.69322C32.0031 2.42069 31.9516 2.15027 31.8482 1.89789C31.7448 1.64552 31.5918 1.4163 31.3981 1.22375C31.2043 1.0312 30.9739 0.879215 30.7202 0.776753C30.4666 0.674288 30.1949 0.623421 29.9212 0.62715C29.6475 0.630879 29.3773 0.689123 29.1266 0.798458C28.8758 0.907791 28.6496 1.066 28.4612 1.26376L15.9823 13.6992L3.50331 1.26375C3.31319 1.07356 3.08728 0.922554 2.8385 0.819355C2.58972 0.716158 2.32296 0.662796 2.05345 0.662321C1.78395 0.661848 1.51699 0.714274 1.26785 0.816595C1.01871 0.918915 0.792266 1.06913 0.601467 1.25865Z" fill="black"/>
</svg>

<svg width="32" height="33" fill="none" xmlns="http://www.w3.org/2000/svg"><path d="M31.398 31.995a2.042 2.042 0 00.446-2.226 2.043 2.043 0 00-.446-.663l-13.93-13.88a2.054 2.054 0 00-2.901 0L.637 29.106a2.041 2.041 0 00-.485 2.25 2.042 2.042 0 001.128 1.121 2.06 2.06 0 002.259-.487l12.479-12.435L28.497 31.99a2.052 2.052 0 002.235.447 2.02 2.02 0 00.666-.442z" fill="#000"/><path d="M.601 1.259a2.041 2.041 0 00-.445 2.226c.104.248.255.473.445.663l13.93 13.88a2.054 2.054 0 002.902 0l13.93-13.88a2.042 2.042 0 00.485-2.25A2.042 2.042 0 0030.72.777a2.058 2.058 0 00-2.259.487L15.982 13.699 3.503 1.264A2.051 2.051 0 001.268.817c-.25.102-.476.252-.667.442z" fill="#000"/></svg>
